svg/file/upload_3_line.svg

<?xml version="1.0" encoding="UTF-8"?>
<svg width="24px" height="24px" viewBox="0 0 24 24" version="1.1" xmlns="http://www.w3.org/2000/svg" xmlns:xlink="http://www.w3.org/1999/xlink">
    <title>upload_3_line</title>
    <g id="页面-1" stroke="none" stroke-width="1" fill="none" fill-rule="evenodd">
        <g id="File" transform="translate(-48.000000, -192.000000)">
            <g id="upload_3_line" transform="translate(48.000000, 192.000000)">
                 <path d="M24,0 L24,24 L0,24 L0,0 L24,0 Z M12.5934901,23.257841 L12.5819402,23.2595131 L12.5108777,23.2950439 L12.4918791,23.2987469 L12.4918791,23.2987469 L12.4767152,23.2950439 L12.4056548,23.2595131 C12.3958229,23.2563662 12.3870493,23.2590235 12.3821421,23.2649074 L12.3780323,23.275831 L12.360941,23.7031097 L12.3658947,23.7234994 L12.3769048,23.7357139 L12.4804777,23.8096931 L12.4953491,23.8136134 L12.4953491,23.8136134 L12.5071152,23.8096931 L12.6106902,23.7357139 L12.6232938,23.7196733 L12.6232938,23.7196733 L12.6266527,23.7031097 L12.609561,23.275831 C12.6075724,23.2657013 12.6010112,23.2592993 12.5934901,23.257841 L12.5934901,23.257841 Z M12.8583906,23.1452862 L12.8445485,23.1473072 L12.6598443,23.2396597 L12.6498822,23.2499052 L12.6498822,23.2499052 L12.6471943,23.2611114 L12.6650943,23.6906389 L12.6699349,23.7034178 L12.6699349,23.7034178 L12.678386,23.7104931 L12.8793402,23.8032389 C12.8914285,23.8068999 12.9022333,23.8029875 12.9078286,23.7952264 L12.9118235,23.7811639 L12.8776777,23.1665331 C12.8752882,23.1545897 12.8674102,23.1470016 12.8583906,23.1452862 L12.8583906,23.1452862 Z M12.1430473,23.1473072 C12.1332178,23.1423925 12.1221763,23.1452606 12.1156365,23.1525954 L12.1099173,23.1665331 L12.0757714,23.7811639 C12.0751323,23.7926639 12.0828099,23.8018602 12.0926481,23.8045676 L12.108256,23.8032389 L12.3092106,23.7104931 L12.3186497,23.7024347 L12.3186497,23.7024347 L12.3225043,23.6906389 L12.340401,23.2611114 L12.337245,23.2485176 L12.337245,23.2485176 L12.3277531,23.2396597 L12.1430473,23.1473072 Z" id="MingCute" fill-rule="nonzero"></path>
                <path d="M11.5,4 C8.85134,4 6.73903,6.38087 7.02729,8.99923 C7.08294,9.50471 6.75509,9.9678 6.26851,10.0896 C4.96468,10.4159 4,11.5965 4,13 C4,14.6569 5.34315,16 7,16 L8,16 C8.55228,16 9,16.4477 9,17 C9,17.5523 8.55228,18 8,18 L7,18 C4.23858,18 2,15.7614 2,13 C2,10.9486 3.23468,9.18749 5.00053,8.41614 C5.04543,4.86494 7.93814,2 11.5,2 C14.2856,2 16.66,3.75154 17.5856,6.21198 C20.13,6.90766 22,9.23462 22,12 C22,15.3137 19.3137,18 16,18 C15.4477,18 15,17.5523 15,17 C15,16.4477 15.4477,16 16,16 C18.2091,16 20,14.2091 20,12 C20,10.0145 18.5524,8.36524 16.6552,8.05324 C16.2653,7.98913 15.9477,7.70323 15.8441,7.32051 C15.326,5.40663 13.576,4 11.5,4 Z M13.0000009,12.4162 L14.2934,13.7077 C14.6843,14.0979 15.3174,14.0974 15.7077,13.7066 C16.0979,13.3157 16.0974,12.6826 15.7066,12.2923 L12.8832,9.47341 C12.3952,8.98618 11.6048,8.98618 11.1168,9.47341 L8.29345,12.2923 C7.90262,12.6826 7.90212,13.3157 8.29234,13.7066 C8.68256,14.0974 9.31572,14.0979 9.70655,13.7077 L11.0000009,12.4162 L11.0000009,21 C11.0000009,21.5523 11.4477,22 12.0000009,22 C12.5523,22 13.0000009,21.5523 13.0000009,21 L13.0000009,12.4162 Z" id="形状" fill="#09244B"></path>
            </g>
        </g>
    </g>
</svg>

<svg xmlns="http://www.w3.org/2000/svg" width="24" height="24"><g fill="none" fill-rule="evenodd"><path d="M24 0v24H0V0h24ZM12.593 23.258l-.011.002-.071.035-.02.004-.014-.004-.071-.035c-.01-.004-.019-.001-.024.005l-.004.01-.017.428.005.02.01.013.104.074.015.004.012-.004.104-.074.012-.016.004-.017-.017-.427c-.002-.01-.009-.017-.017-.018Zm.265-.113-.013.002-.185.093-.01.01-.003.011.018.43.005.012.008.007.201.093c.012.004.023 0 .029-.008l.004-.014-.034-.614c-.003-.012-.01-.02-.02-.022Zm-.715.002a.023.023 0 0 0-.027.006l-.006.014-.034.614c0 .012.007.02.017.024l.015-.002.201-.093.01-.008.004-.011.017-.43-.003-.012-.01-.01-.184-.092Z"/><path fill="#09244B" d="M11.5 4C8.851 4 6.739 6.38 7.027 9a1.01 1.01 0 0 1-.758 1.09A3.002 3.002 0 0 0 7 16h1a1 1 0 1 1 0 2H7a5 5 0 0 1-2-9.584 6.5 6.5 0 0 1 12.586-2.204A6.002 6.002 0 0 1 16 18a1 1 0 1 1 0-2 4 4 0 0 0 .655-7.947 1.01 1.01 0 0 1-.81-.732A4.502 4.502 0 0 0 11.5 4Zm1.5 8.416 1.293 1.292a1 1 0 0 0 1.414-1.416l-2.824-2.819a1.25 1.25 0 0 0-1.766 0l-2.824 2.82a1 1 0 0 0 1.414 1.415L11 12.416V21a1 1 0 1 0 2 0v-8.584Z"/></g></svg>
